assets/icones/comentarios.svg

<svg width="1000" height="1000" viewBox="0 0 1000 1000" fill="none" xmlns="http://www.w3.org/2000/svg">
<path d="M648.719 117.06H351.259C255.989 117.06 169.359 152.97 106.569 210.79C43.7886 268.65 4.80859 348.42 4.80859 436.19C4.80859 563.9 74.4986 641.26 143.079 689.16L20.0086 856.05C13.8986 872.02 30.5886 887.38 47.9086 881.75L223.199 824.77L436.919 755.31H648.719C743.999 755.31 830.609 719.4 893.409 661.58C956.209 603.72 995.189 523.95 995.189 436.19C995.189 260.66 839.269 117.06 648.719 117.06ZM708.919 298.68C707.649 307.48 706.049 316.49 704.299 321.47C701.289 329.91 687.409 330.05 684.189 321.68C682.279 316.54 680.279 307.37 678.649 298.68C676.219 285.79 666.329 275.6 653.529 272.72C648.149 271.51 643.139 270.26 640.379 269.26C632.189 266.17 632.079 256 640.209 252.77C642.729 251.76 647.259 250.67 652.249 249.65C665.819 246.87 676.189 235.9 678.209 222.2C679.509 213.36 681.179 204.21 683.019 199.16C685.969 190.79 699.849 190.65 703.029 198.95C704.999 204.08 706.939 213.28 708.509 222.07C710.869 235.28 721.029 245.73 734.159 248.45C739.309 249.52 744.059 250.66 746.739 251.67C754.929 254.68 755.039 264.9 746.909 268.08C744.419 269.09 740.059 270.09 735.239 271.01C721.449 273.63 710.919 284.8 708.919 298.69V298.68ZM921.739 409.8C917.439 411.53 909.899 413.28 901.569 414.86C877.749 419.38 859.549 438.69 856.099 462.69C853.909 477.9 851.149 493.47 848.119 502.06C842.919 516.65 818.939 516.89 813.369 502.42C810.049 493.53 806.609 477.69 803.789 462.68C799.599 440.4 782.509 422.81 760.389 417.83C751.099 415.74 742.439 413.58 737.679 411.85C723.529 406.49 723.349 388.93 737.389 383.35C741.749 381.61 749.569 379.72 758.179 377.95C781.629 373.15 799.559 354.21 803.039 330.53C805.289 315.24 808.169 299.46 811.349 290.71C816.449 276.25 840.429 276 845.919 290.36C849.319 299.23 852.669 315.12 855.379 330.3C859.459 353.12 876.999 371.18 899.699 375.89C908.599 377.73 916.809 379.7 921.429 381.45C935.579 386.65 935.759 404.31 921.719 409.8H921.739Z" fill="#D9D9D9"/>
</svg>

<?xml version="1.0" encoding="UTF-8"?><svg id="_ícones" xmlns="http://www.w3.org/2000/svg" viewBox="0 0 1000 1000"><defs><style>.cls-1{fill:#010101;}</style></defs><path class="cls-1" d="m648.72,117.06h-297.46c-95.27,0-181.9,35.91-244.69,93.73C43.79,268.65,4.81,348.42,4.81,436.19c0,127.71,69.69,205.07,138.27,252.97l-123.07,166.89c-6.11,15.97,10.58,31.33,27.9,25.7l175.29-56.98,213.72-69.46h211.8c95.28,0,181.89-35.91,244.69-93.73,62.8-57.86,101.78-137.63,101.78-225.39,0-175.53-155.92-319.13-346.47-319.13Zm60.2,181.62c-1.27,8.8-2.87,17.81-4.62,22.79-3.01,8.44-16.89,8.58-20.11.21-1.91-5.14-3.91-14.31-5.54-23-2.43-12.89-12.32-23.08-25.12-25.96-5.38-1.21-10.39-2.46-13.15-3.46-8.19-3.09-8.3-13.26-.17-16.49,2.52-1.01,7.05-2.1,12.04-3.12,13.57-2.78,23.94-13.75,25.96-27.45,1.3-8.84,2.97-17.99,4.81-23.04,2.95-8.37,16.83-8.51,20.01-.21,1.97,5.13,3.91,14.33,5.48,23.12,2.36,13.21,12.52,23.66,25.65,26.38,5.15,1.07,9.9,2.21,12.58,3.22,8.19,3.01,8.3,13.23.17,16.41-2.49,1.01-6.85,2.01-11.67,2.93-13.79,2.62-24.32,13.79-26.32,27.68Zm212.82,111.12c-4.3,1.73-11.84,3.48-20.17,5.06-23.82,4.52-42.02,23.83-45.47,47.83-2.19,15.21-4.95,30.78-7.98,39.37-5.2,14.59-29.18,14.83-34.75.36-3.32-8.89-6.76-24.73-9.58-39.74-4.19-22.28-21.28-39.87-43.4-44.85-9.29-2.09-17.95-4.25-22.71-5.98-14.15-5.36-14.33-22.92-.29-28.5,4.36-1.74,12.18-3.63,20.79-5.4,23.45-4.8,41.38-23.74,44.86-47.42,2.25-15.29,5.13-31.07,8.31-39.82,5.1-14.46,29.08-14.71,34.57-.35,3.4,8.87,6.75,24.76,9.46,39.94,4.08,22.82,21.62,40.88,44.32,45.59,8.9,1.84,17.11,3.81,21.73,5.56,14.15,5.2,14.33,22.86.29,28.35Z"/></svg>
